X:1
T: The Hare Among the Corn
C:
R:Jig
Q:180
K:A
M:6/8
L:1/16
|:d2|c2A2c2 e2f2g2|a2e2d2 c4A2|c2A2c2 e2d2c2|d2B2B2 B4d2|
c2A2c2 e2f2g2|a2e2d2 c4A2|B2f2a2 f2e2c2|a2e2c2 A4c2|
e2c2c2 A2c2c2|e2c2c2 A2c2c2|d2B2B2 G2B2B2|d2B2B2 G2B2B2|
e2c2c2 f2d2d2|e2c2c2 a4f2|e2d2c2 d2B2e2|a2e2c2 A4:|
